source/img/iconmonstr-instagram-1.svg

<svg width="31" height="31" viewBox="0 0 31 31" version="1.1" xmlns="http://www.w3.org/2000/svg" xmlns:xlink="http://www.w3.org/1999/xlink">
<title>iconmonstr-instagram-1</title>
<desc>Created using Figma</desc>
<g id="Canvas" transform="translate(-93 10)">
<g id="iconmonstr-instagram-1">
<g id="viber">
<g id="Group">
<g id="Vector">
<use xlink:href="#path0_fill" transform="translate(107.968 -3)" fill="#FFFFFF"/>
<use xlink:href="#path0_fill" transform="translate(107.968 -3)" fill="url(#paint1_linear)"/>
</g>
<g id="Vector">
<use xlink:href="#path1_fill" transform="translate(108.196 -0.75235)" fill="#FFFFFF"/>
<use xlink:href="#path1_fill" transform="translate(108.196 -0.75235)" fill="url(#paint3_linear)"/>
</g>
<g id="Vector">
<use xlink:href="#path2_fill" transform="translate(108.658 1.61623)" fill="#FFFFFF"/>
<use xlink:href="#path2_fill" transform="translate(108.658 1.61623)" fill="url(#paint5_linear)"/>
</g>
<g id="Vector">
<use xlink:href="#path3_fill" transform="translate(99 -2.70303)" fill="#FFFFFF"/>
<use xlink:href="#path3_fill" transform="translate(99 -2.70303)" fill="url(#paint7_linear)"/>
</g>
</g>
</g>
<g id="Ellipse">
<use xlink:href="#path4_stroke" transform="translate(94 -9.38656)" fill="#FFFFFF" style="mix-blend-mode:hard-light"/>
<use xlink:href="#path4_stroke" transform="translate(94 -9.38656)" fill="url(#paint9_linear)"/>
</g>
</g>
</g>
<defs>
<linearGradient id="paint1_linear" x1="0" y1="0" x2="1" y2="0" gradientUnits="userSpaceOnUse" gradientTransform="matrix(5.53046e-16 9.27544 -9.03193 5.67957e-16 9.03193 -5.67957e-16)">
<stop offset="0" stop-color="#666463"/>
<stop offset="1" stop-color="#918484" stop-opacity="0"/>
</linearGradient>
<linearGradient id="paint3_linear" x1="0" y1="0" x2="1" y2="0" gradientUnits="userSpaceOnUse" gradientTransform="matrix(3.84274e-16 6.45039 -6.27568 3.94972e-16 6.27568 -3.94972e-16)">
<stop offset="0" stop-color="#666463"/>
<stop offset="1" stop-color="#918484" stop-opacity="0"/>
</linearGradient>
<linearGradient id="paint5_linear" x1="0" y1="0" x2="1" y2="0" gradientUnits="userSpaceOnUse" gradientTransform="matrix(2.14019e-16 3.56731 -3.4952 2.18435e-16 3.4952 -2.18435e-16)">
<stop offset="0" stop-color="#666463"/>
<stop offset="1" stop-color="#918484" stop-opacity="0"/>
</linearGradient>
<linearGradient id="paint7_linear" x1="0" y1="0" x2="1" y2="0" gradientUnits="userSpaceOnUse" gradientTransform="matrix(1.0996e-15 17.703 -17.9578 1.084e-15 17.9578 -1.084e-15)">
<stop offset="0" stop-color="#666463"/>
<stop offset="1" stop-color="#918484" stop-opacity="0"/>
</linearGradient>
<linearGradient id="paint9_linear" x1="0" y1="0" x2="1" y2="0" gradientUnits="userSpaceOnUse" gradientTransform="matrix(1.77574e-15 29 -29 1.77574e-15 29 -1.77574e-15)">
<stop offset="0" stop-color="#666463"/>
<stop offset="1" stop-color="#FFFFFF" stop-opacity="0"/>
</linearGradient>
<path id="path0_fill" d="M 0.158984 0.12364C 0.313917 0 0.406864 0 0.902622 0C 1.1505 0 1.52232 0.0309189 1.7392 0.0618377C 2.76172 0.185478 3.41241 0.340038 4.31098 0.772762C 5.20955 1.20552 5.76729 1.60733 6.54192 2.31828C 7.25457 2.99832 7.62642 3.52381 8.06019 4.35837C 8.6489 5.50205 8.95877 6.83121 9.02075 8.3149C 9.05175 8.80946 9.02075 8.9331 8.89681 9.08766C 8.67993 9.36586 8.18417 9.33494 7.99824 8.99494C 7.93625 8.90222 7.93625 8.80946 7.9053 8.40766C 7.8743 7.78945 7.84331 7.38761 7.75036 6.89305C 7.40954 5.00753 6.47997 3.49292 4.9927 2.41104C 3.7533 1.51464 2.6688 1.17464 0.995602 1.051C 0.406898 1.051 0.313917 1.051 0.189978 0.927356C -0.0579015 0.772762 -0.0579013 0.340002 0.158984 0.12364Z"/>
<path id="path1_fill" d="M 2.99901 1.7398C 2.4103 1.3998 1.51173 1.1216 0.70611 1.05976C 0.427237 1.02884 0.241345 0.967038 0.148364 0.843397C -0.0375631 0.688838 -0.0375628 0.410638 0.0863768 0.225195C 0.24131 -0.0220859 0.489189 -0.0530048 1.20183 0.0706357C 2.99897 0.317917 4.3933 1.15252 5.32287 2.48164C 5.84962 3.22348 6.15945 4.11989 6.25243 5.04721C 6.28343 5.38721 6.28343 6.00545 6.25243 6.12909C 6.22144 6.22181 6.0975 6.37637 5.97356 6.40729C 5.84962 6.46913 5.60174 6.46913 5.4778 6.37637C 5.26092 6.25273 5.16793 6.09817 5.16793 5.60361C 5.16793 4.86176 4.98201 4.05808 4.61019 3.43988C 4.2384 2.72892 3.68069 2.14164 2.99901 1.7398Z"/>
<path id="path2_fill" d="M 3.31127 3.45139C 3.12534 3.60595 2.81551 3.60595 2.62958 3.45139C 2.47465 3.35867 2.44365 3.23503 2.4127 2.92591C 2.3817 2.52407 2.28876 2.24587 2.19581 1.99859C 1.94793 1.44219 1.48317 1.16403 0.708535 1.07127C 0.336717 1.04035 0.243771 0.978549 0.119831 0.854909C -0.0970543 0.607628 -0.00410836 0.205788 0.274764 0.0512282C 0.398704 -0.0106095 0.429697 -0.0106099 0.677576 0.020309C 0.83251 0.020309 1.04939 0.0512281 1.17333 0.082147C 1.76204 0.205787 2.19585 0.42215 2.59866 0.762187C 3.09442 1.22583 3.37329 1.75131 3.46623 2.55499C 3.52815 3.08047 3.49716 3.29683 3.31127 3.45139Z"/>
<path id="path3_fill" d="M 17.9578 14.3546C 17.9578 14.0764 17.8649 13.86 17.679 13.6437C 17.493 13.4273 16.2226 12.4073 15.6029 12.0054C 15.1382 11.6963 14.4255 11.2636 14.1157 11.109C 13.6819 10.8927 13.2481 10.8617 12.8453 10.9854C 12.7523 11.0163 12.6903 11.0472 12.6284 11.0781C 12.4425 11.1708 12.2876 11.3563 11.9157 11.789C 11.6679 12.0981 11.451 12.3763 11.42 12.3763C 11.42 12.3763 11.389 12.3763 11.389 12.4072C 11.358 12.4381 11.2651 12.4691 11.2031 12.4999C 10.8003 12.6854 10.2735 12.5618 9.40592 12.1599C 8.72424 11.8199 8.13554 11.4181 7.45385 10.7999C 6.86515 10.2744 6.27641 9.62529 5.96658 9.09981C 5.53277 8.41977 5.22294 7.55429 5.22294 7.05973C 5.22294 6.84336 5.31588 6.56516 5.40887 6.41061L 5.43986 6.37969C 5.43986 6.37969 5.43986 6.37969 5.47085 6.34877C 5.50185 6.31785 5.53284 6.28693 5.5638 6.28693C 5.68774 6.19421 5.84267 6.03965 5.9976 5.91601C 6.71025 5.35961 6.86518 5.17417 6.95816 4.86505C 7.05111 4.55593 6.95816 4.15412 6.6483 3.59772C 6.09048 2.57772 4.54125 0.630352 3.98351 0.25943C 3.89056 0.197593 3.73563 0.13579 3.64268 0.0739523C 3.3948 0.0121145 3.05398 -0.0187693 2.86805 0.0121145C 2.58918 0.0739523 2.24835 0.290314 1.47372 0.846679C 1.00896 1.18668 0.389225 1.774 0.234327 2.02128C -0.106499 2.60856 -0.0755399 3.07224 0.327272 4.21593C 0.699091 5.23597 1.19485 6.25601 1.7526 7.24513L 1.78359 7.27605C 1.90753 7.46153 2.03147 7.67789 2.15541 7.86334C 2.15541 7.89426 2.1864 7.89426 2.1864 7.92517C 2.31034 8.11065 2.43428 8.32701 2.55822 8.51246C 2.62021 8.5743 2.65117 8.66702 2.71315 8.72882C 2.8061 8.88338 2.89908 9.00702 3.02302 9.16158C 3.17795 9.37794 3.33289 9.59434 3.51878 9.8107C 5.28493 12.0981 7.32995 13.9527 9.74679 15.4673C 9.77778 15.4982 9.80877 15.4982 9.83973 15.5292C 10.2115 15.7455 10.5834 15.9619 10.9552 16.1783C 11.0172 16.2092 11.0481 16.2401 11.1101 16.271C 11.4819 16.4874 11.8848 16.6728 12.2876 16.8583C 12.3186 16.8892 12.3805 16.8892 12.4115 16.9201C 12.8143 17.1056 13.2481 17.291 13.6819 17.4765C 14.2086 17.6929 14.3945 17.7238 14.7973 17.6929C 14.9833 17.6929 15.1692 17.662 15.3241 17.6002C 15.572 17.5383 15.7889 17.4147 16.0677 17.2292C 16.1297 17.1983 16.1607 17.1674 16.2227 17.1365C 16.2847 17.1056 16.3466 17.0438 16.4086 16.982C 16.7494 16.7038 17.1212 16.271 17.4311 15.8692C 17.648 15.591 17.8029 15.3128 17.8959 15.0964C 17.9268 14.7873 17.9578 14.5709 17.9578 14.3546Z"/>
<path id="path4_stroke" d="M 29.5 14.5C 29.5 14.1703 29.4894 13.843 29.4684 13.5185L 28.4705 13.583C 28.4901 13.8861 28.5 14.1918 28.5 14.5L 29.5 14.5ZM 29.2145 11.5731C 29.0863 10.925 28.9163 10.2919 28.7075 9.67673L 27.7606 9.99811C 27.9554 10.572 28.1139 11.1626 28.2335 11.7672L 29.2145 11.5731ZM 27.9558 7.86394C 27.6648 7.2748 27.3362 6.70759 26.9732 6.16541L 26.1422 6.72173C 26.481 7.22783 26.7877 7.75719 27.0593 8.3069L 27.9558 7.86394ZM 25.7777 4.60959C 25.3459 4.11761 24.8824 3.65414 24.3904 3.22234L 23.7308 3.97392C 24.1901 4.3771 24.6229 4.80986 25.0261 5.26924L 25.7777 4.60959ZM 22.8346 2.02682C 22.2924 1.66384 21.7252 1.33524 21.1361 1.04416L 20.6931 1.9407C 21.2428 2.2123 21.7722 2.51896 22.2783 2.85779L 22.8346 2.02682ZM 19.3233 0.292453C 18.7081 0.0836655 18.075 -0.086291 17.4269 -0.2145L 17.2328 0.766488C 17.8374 0.886102 18.428 1.04465 19.0019 1.2394L 19.3233 0.292453ZM 15.4815 -0.468384C 15.157 -0.489356 14.8297 -0.5 14.5 -0.5L 14.5 0.5C 14.8082 0.5 15.1139 0.509949 15.417 0.529535L 15.4815 -0.468384ZM 14.5 -0.5C 14.1703 -0.5 13.843 -0.489356 13.5185 -0.468384L 13.583 0.529535C 13.8861 0.509949 14.1918 0.5 14.5 0.5L 14.5 -0.5ZM 11.5731 -0.2145C 10.925 -0.0862912 10.2919 0.0836655 9.67673 0.292453L 9.99811 1.2394C 10.572 1.04465 11.1626 0.886102 11.7672 0.766488L 11.5731 -0.2145ZM 7.86394 1.04416C 7.2748 1.33524 6.70759 1.66384 6.16541 2.02682L 6.72173 2.85779C 7.22783 2.51896 7.75719 2.2123 8.3069 1.9407L 7.86394 1.04416ZM 4.60959 3.22234C 4.11761 3.65414 3.65414 4.11761 3.22234 4.6096L 3.97392 5.26924C 4.3771 4.80986 4.80986 4.3771 5.26924 3.97392L 4.60959 3.22234ZM 2.02682 6.16541C 1.66384 6.70759 1.33524 7.2748 1.04416 7.86394L 1.9407 8.3069C 2.2123 7.75719 2.51896 7.22783 2.85779 6.72173L 2.02682 6.16541ZM 0.292453 9.67673C 0.0836655 10.2919 -0.086291 10.925 -0.2145 11.5731L 0.766488 11.7672C 0.886102 11.1626 1.04465 10.572 1.2394 9.99811L 0.292453 9.67673ZM -0.468384 13.5185C -0.489356 13.843 -0.5 14.1703 -0.5 14.5L 0.5 14.5C 0.5 14.1918 0.509949 13.8861 0.529535 13.583L -0.468384 13.5185ZM -0.5 14.5C -0.5 14.8297 -0.489356 15.157 -0.468384 15.4815L 0.529535 15.417C 0.509949 15.1139 0.5 14.8082 0.5 14.5L -0.5 14.5ZM -0.2145 17.4269C -0.0862912 18.075 0.0836655 18.7081 0.292453 19.3233L 1.2394 19.0019C 1.04465 18.428 0.886102 17.8374 0.766488 17.2328L -0.2145 17.4269ZM 1.04416 21.1361C 1.33524 21.7252 1.66384 22.2924 2.02682 22.8346L 2.85779 22.2783C 2.51896 21.7722 2.2123 21.2428 1.9407 20.6931L 1.04416 21.1361ZM 3.22234 24.3904C 3.65414 24.8824 4.11761 25.3459 4.6096 25.7777L 5.26924 25.0261C 4.80986 24.6229 4.3771 24.1901 3.97392 23.7308L 3.22234 24.3904ZM 6.16541 26.9732C 6.70759 27.3362 7.2748 27.6648 7.86394 27.9558L 8.3069 27.0593C 7.75719 26.7877 7.22783 26.481 6.72173 26.1422L 6.16541 26.9732ZM 9.67673 28.7075C 10.2919 28.9163 10.925 29.0863 11.5731 29.2145L 11.7672 28.2335C 11.1626 28.1139 10.572 27.9554 9.99811 27.7606L 9.67673 28.7075ZM 13.5185 29.4684C 13.843 29.4894 14.1703 29.5 14.5 29.5L 14.5 28.5C 14.1918 28.5 13.8861 28.4901 13.583 28.4705L 13.5185 29.4684ZM 14.5 29.5C 14.8297 29.5 15.157 29.4894 15.4815 29.4684L 15.417 28.4705C 15.1139 28.4901 14.8082 28.5 14.5 28.5L 14.5 29.5ZM 17.4269 29.2145C 18.075 29.0863 18.7081 28.9163 19.3233 28.7075L 19.0019 27.7606C 18.428 27.9554 17.8374 28.1139 17.2328 28.2335L 17.4269 29.2145ZM 21.1361 27.9558C 21.7252 27.6648 22.2924 27.3362 22.8346 26.9732L 22.2783 26.1422C 21.7722 26.481 21.2428 26.7877 20.6931 27.0593L 21.1361 27.9558ZM 24.3904 25.7777C 24.8824 25.3459 25.3459 24.8824 25.7777 24.3904L 25.0261 23.7308C 24.6229 24.1901 24.1901 24.6229 23.7308 25.0261L 24.3904 25.7777ZM 26.9732 22.8346C 27.3362 22.2924 27.6648 21.7252 27.9558 21.1361L 27.0593 20.6931C 26.7877 21.2428 26.481 21.7722 26.1422 22.2783L 26.9732 22.8346ZM 28.7075 19.3233C 28.9163 18.7081 29.0863 18.075 29.2145 17.4269L 28.2335 17.2328C 28.1139 17.8374 27.9554 18.428 27.7606 19.0019L 28.7075 19.3233ZM 29.4684 15.4815C 29.4894 15.157 29.5 14.8297 29.5 14.5L 28.5 14.5C 28.5 14.8082 28.4901 15.1139 28.4705 15.417L 29.4684 15.4815Z"/>
</defs>
</svg>

<svg width="31" height="31" xmlns="http://www.w3.org/2000/svg" xmlns:xlink="http://www.w3.org/1999/xlink"><g transform="translate(14.968 7)"><use xlink:href="#path0_fill" fill="#FFF"/><use xlink:href="#path0_fill" fill="url(#paint1_linear)"/></g><g transform="translate(15.196 9.248)"><use xlink:href="#path1_fill" fill="#FFF"/><use xlink:href="#path1_fill" fill="url(#paint3_linear)"/></g><g transform="translate(15.658 11.616)"><use xlink:href="#path2_fill" fill="#FFF"/><use xlink:href="#path2_fill" fill="url(#paint5_linear)"/></g><g transform="translate(6 7.297)"><use xlink:href="#path3_fill" fill="#FFF"/><use xlink:href="#path3_fill" fill="url(#paint7_linear)"/></g><g transform="translate(1 .613)"><use xlink:href="#path4_stroke" fill="#FFF" style="mix-blend-mode:hard-light"/><use xlink:href="#path4_stroke" fill="url(#paint9_linear)"/></g><defs><linearGradient id="paint1_linear" x2="1" gradientUnits="userSpaceOnUse" gradientTransform="matrix(0 9.27544 -9.03193 0 9.032 0)"><stop offset="0" stop-color="#666463"/><stop offset="1" stop-color="#918484" stop-opacity="0"/></linearGradient><linearGradient id="paint3_linear" x2="1" gradientUnits="userSpaceOnUse" gradientTransform="matrix(0 6.45039 -6.27568 0 6.276 0)"><stop offset="0" stop-color="#666463"/><stop offset="1" stop-color="#918484" stop-opacity="0"/></linearGradient><linearGradient id="paint5_linear" x2="1" gradientUnits="userSpaceOnUse" gradientTransform="matrix(0 3.56731 -3.4952 0 3.495 0)"><stop offset="0" stop-color="#666463"/><stop offset="1" stop-color="#918484" stop-opacity="0"/></linearGradient><linearGradient id="paint7_linear" x2="1" gradientUnits="userSpaceOnUse" gradientTransform="matrix(0 17.703 -17.9578 0 17.958 0)"><stop offset="0" stop-color="#666463"/><stop offset="1" stop-color="#918484" stop-opacity="0"/></linearGradient><linearGradient id="paint9_linear" x2="1" gradientUnits="userSpaceOnUse" gradientTransform="matrix(0 29 -29 0 29 0)"><stop offset="0" stop-color="#666463"/><stop offset="1" stop-color="#FFF" stop-opacity="0"/></linearGradient><path id="path0_fill" d="M.159.124C.314 0 .407 0 .903 0c.248 0 .62.03.836.062 1.023.123 1.673.278 2.572.71.899.434 1.456.835 2.23 1.546.714.68 1.085 1.206 1.52 2.04.588 1.144.898 2.473.96 3.957.03.494 0 .618-.124.773-.217.278-.713.247-.899-.093-.062-.093-.062-.186-.093-.587-.03-.619-.062-1.02-.155-1.515-.34-1.885-1.27-3.4-2.757-4.482-1.24-.896-2.324-1.236-3.997-1.36-.59 0-.682 0-.806-.124C-.058.773-.058.34.159.124z"/><path id="path1_fill" d="M2.999 1.74C2.41 1.4 1.512 1.122.706 1.06.427 1.029.241.967.148.843-.038.69-.038.411.086.225.241-.022.49-.053 1.202.071c1.797.247 3.191 1.082 4.12 2.41.528.742.837 1.639.93 2.566.031.34.031.958 0 1.082-.03.093-.154.247-.278.278-.124.062-.372.062-.496-.03-.217-.124-.31-.279-.31-.773 0-.742-.186-1.546-.558-2.164A4.261 4.261 0 0 0 3 1.74z"/><path id="path2_fill" d="M3.311 3.451a.56.56 0 0 1-.681 0c-.155-.092-.186-.216-.217-.525a3.147 3.147 0 0 0-.217-.927c-.248-.557-.713-.835-1.487-.928C.337 1.041.244.98.119.855-.096.608-.003.205.276.05.399-.01.43-.01.678.021c.155 0 .371.03.495.061.589.124 1.023.34 1.426.68.495.464.774.99.867 1.793.062.525.031.742-.155.896z"/><path id="path3_fill" d="M17.958 14.355c0-.279-.093-.495-.279-.711-.186-.217-1.456-1.237-2.076-1.639-.465-.309-1.178-.741-1.487-.896-.434-.216-.868-.247-1.27-.124-.094.031-.156.062-.218.093-.185.093-.34.278-.712.711-.248.31-.465.587-.496.587 0 0-.031 0-.031.031-.031.031-.124.062-.186.093-.403.185-.93.062-1.797-.34-.682-.34-1.27-.742-1.952-1.36-.589-.526-1.178-1.175-1.487-1.7-.434-.68-.744-1.546-.744-2.04 0-.217.093-.495.186-.65l.03-.03.032-.031c.03-.031.062-.062.093-.062.124-.093.279-.247.434-.371.712-.556.867-.742.96-1.051.093-.31 0-.71-.31-1.267C6.09 2.578 4.541.63 3.984.259 3.89.198 3.736.136 3.643.074c-.248-.062-.589-.093-.775-.062-.279.062-.62.278-1.394.835-.465.34-1.085.927-1.24 1.174-.34.588-.31 1.051.093 2.195.372 1.02.868 2.04 1.426 3.03l.03.03c.125.186.248.402.372.587 0 .031.031.031.031.062.124.186.248.402.372.587.062.062.093.155.155.217.093.154.186.278.31.433.155.216.31.432.496.649a23.561 23.561 0 0 0 6.228 5.656c.03.031.062.031.093.062l1.115.65c.062.03.093.061.155.092.372.216.775.402 1.178.587.03.031.092.031.123.062.403.186.837.371 1.27.556.528.217.714.248 1.116.217.186 0 .372-.031.527-.093.248-.062.465-.185.744-.37.062-.032.093-.063.155-.093.062-.031.124-.093.186-.155.34-.278.712-.711 1.022-1.113.217-.278.372-.556.465-.773.03-.309.062-.525.062-.741z"/><path id="path4_stroke" d="M29.5 14.5c0-.33-.01-.657-.032-.982l-.997.065c.02.303.029.609.029.917h1zm-.285-2.927a14.887 14.887 0 0 0-.508-1.896l-.946.321c.194.574.353 1.165.473 1.77l.98-.195zm-1.26-3.71c-.29-.588-.619-1.155-.982-1.698l-.83.557c.338.506.645 1.035.916 1.585l.897-.443zM25.779 4.61a15.089 15.089 0 0 0-1.388-1.388l-.66.752c.46.403.893.836 1.296 1.295l.752-.66zm-2.943-2.583a14.989 14.989 0 0 0-1.699-.983l-.443.897c.55.271 1.08.578 1.585.917l.557-.831zM19.323.292a14.892 14.892 0 0 0-1.896-.506l-.194.98c.604.12 1.195.279 1.769.473l.321-.947zm-3.841-.76A15.218 15.218 0 0 0 14.5-.5v1c.308 0 .614.01.917.03l.065-.998zM14.5-.5c-.33 0-.657.01-.982.032l.065.998c.303-.02.609-.03.917-.03v-1zm-2.927.285a14.89 14.89 0 0 0-1.896.507l.321.947a13.897 13.897 0 0 1 1.77-.473l-.195-.98zm-3.71 1.26c-.588.29-1.155.619-1.698.982l.557.83a13.984 13.984 0 0 1 1.585-.916l-.443-.897zM4.61 3.221A15.09 15.09 0 0 0 3.222 4.61l.752.66c.403-.46.836-.893 1.295-1.296l-.66-.752zM2.027 6.165c-.363.543-.692 1.11-.983 1.699l.897.443c.271-.55.578-1.08.917-1.585l-.831-.557zM.292 9.677a14.89 14.89 0 0 0-.506 1.896l.98.194c.12-.604.279-1.195.473-1.769l-.947-.321zm-.76 3.841c-.021.325-.032.652-.032.982h1c0-.308.01-.614.03-.917l-.998-.065zM-.5 14.5c0 .33.01.657.032.982l.998-.065C.51 15.114.5 14.808.5 14.5h-1zm.285 2.927c.129.648.299 1.281.507 1.896l.947-.321a13.898 13.898 0 0 1-.473-1.77l-.98.195zm1.26 3.71c.29.588.619 1.155.982 1.698l.83-.557a13.985 13.985 0 0 1-.916-1.585l-.897.443zm2.177 3.253c.432.492.896.956 1.388 1.388l.66-.752c-.46-.403-.893-.836-1.296-1.295l-.752.66zm2.943 2.583c.543.363 1.11.692 1.699.983l.443-.897c-.55-.271-1.08-.578-1.585-.917l-.557.831zm3.512 1.735c.615.208 1.248.378 1.896.507l.194-.982a13.886 13.886 0 0 1-1.769-.472l-.321.947zm3.841.76c.325.021.652.032.982.032v-1c-.308 0-.614-.01-.917-.03l-.065.998zm.982.032c.33 0 .657-.01.982-.032l-.065-.997c-.303.02-.609.029-.917.029v1zm2.927-.285a14.889 14.889 0 0 0 1.896-.508l-.321-.946c-.574.194-1.165.353-1.77.473l.195.98zm3.71-1.26c.588-.29 1.155-.619 1.698-.982l-.557-.83a13.99 13.99 0 0 1-1.585.916l.443.897zm3.253-2.177c.492-.432.956-.896 1.388-1.388l-.752-.66c-.403.46-.836.893-1.295 1.296l.66.752zm2.583-2.943c.363-.543.692-1.11.983-1.699l-.897-.443a13.99 13.99 0 0 1-.917 1.585l.831.557zm1.735-3.512c.208-.615.378-1.248.507-1.896l-.982-.194c-.12.604-.278 1.195-.472 1.769l.947.321zm.76-3.841c.021-.325.032-.652.032-.982h-1c0 .308-.01.614-.03.917l.998.065z"/></defs></svg>
